X: 1378
T:Tom Billy's
M:6/8
L:1/8
S:Tommy Peoples, Donegal (fiddle)
R:Jig
D:From a 70's demo tape
N:As played
Z:Bernie Stocks
K:D
~a3 Ace | {f}edB {d}BAA | eaa Ace | edB Ace | ~a3 Ace | edB BAB | GBd (3gfge |
(3.f.f.dB Ace :| ~g3 ~a3 | bag fed | (3.f.f.af (3gfge | fdB def | ~g3 ~a3 |
bge gab | age dBe |1 ABA A3 :|2 (3.A.A.AA (3.a.a.ed || c3 ~d3 | edB dBA |
A3 cBA | (3.A.A.AA aed | ~c3 ~d3 | ede gab | age dBe | ABA A3 :|
